starsky/starskytest/FakeCreateAn/CreateAnImageA6700PreviewRawJpeg/20260308_144118_DSC05172.xmp
<x:xmpmeta xmlns:x='adobe:ns:meta/' x:xmptk='Image::ExifTool 13.29'>
<rdf:RDF xmlns:rdf='http://www.w3.org/1999/02/22-rdf-syntax-ns#'>

 <rdf:Description rdf:about=''
  xmlns:aux='http://ns.adobe.com/exif/1.0/aux/'>
  <aux:Lens>E 18-200mm F3.5-6.3 OSS LE</aux:Lens>
  <aux:LensDistortInfo>1066321379/1073741824 4721730/1073741824 3537676/1073741824 -857512/1073741824</aux:LensDistortInfo>
  <aux:LensInfo>180/10 2000/10 35/10 63/10</aux:LensInfo>
 </rdf:Description>

 <rdf:Description rdf:about=''
  xmlns:crd='http://ns.adobe.com/camera-raw-defaults/1.0/'>
  <crd:CameraProfile>Camera ST</crd:CameraProfile>
  <crd:LookName/>
 </rdf:Description>

 <rdf:Description rdf:about=''
  xmlns:crs='http://ns.adobe.com/camera-raw-settings/1.0/'>
  <crs:AlreadyApplied>False</crs:AlreadyApplied>
  <crs:AutoLateralCA>0</crs:AutoLateralCA>
  <crs:Blacks2012>0</crs:Blacks2012>
  <crs:BlueHue>0</crs:BlueHue>
  <crs:BlueSaturation>0</crs:BlueSaturation>
  <crs:CameraProfile>Camera ST</crs:CameraProfile>
  <crs:CameraProfileDigest>73EC180B514DCA533E8304070B7FD2F3</crs:CameraProfileDigest>
  <crs:Clarity2012>0</crs:Clarity2012>
  <crs:ColorGradeBlending>50</crs:ColorGradeBlending>
  <crs:ColorGradeGlobalHue>0</crs:ColorGradeGlobalHue>
  <crs:ColorGradeGlobalLum>0</crs:ColorGradeGlobalLum>
  <crs:ColorGradeGlobalSat>0</crs:ColorGradeGlobalSat>
  <crs:ColorGradeHighlightLum>0</crs:ColorGradeHighlightLum>
  <crs:ColorGradeMidtoneHue>0</crs:ColorGradeMidtoneHue>
  <crs:ColorGradeMidtoneLum>0</crs:ColorGradeMidtoneLum>
  <crs:ColorGradeMidtoneSat>0</crs:ColorGradeMidtoneSat>
  <crs:ColorGradeShadowLum>0</crs:ColorGradeShadowLum>
  <crs:ColorNoiseReduction>25</crs:ColorNoiseReduction>
  <crs:ColorNoiseReductionDetail>50</crs:ColorNoiseReductionDetail>
  <crs:ColorNoiseReductionSmoothness>50</crs:ColorNoiseReductionSmoothness>
  <crs:Contrast2012>0</crs:Contrast2012>
  <crs:ConvertToGrayscale>False</crs:ConvertToGrayscale>
  <crs:DefringeGreenAmount>0</crs:DefringeGreenAmount>
  <crs:DefringeGreenHueHi>60</crs:DefringeGreenHueHi>
  <crs:DefringeGreenHueLo>40</crs:DefringeGreenHueLo>
  <crs:DefringePurpleAmount>0</crs:DefringePurpleAmount>
  <crs:DefringePurpleHueHi>70</crs:DefringePurpleHueHi>
  <crs:DefringePurpleHueLo>30</crs:DefringePurpleHueLo>
  <crs:Dehaze>0</crs:Dehaze>
  <crs:Exposure2012>0.00</crs:Exposure2012>
  <crs:GrainAmount>0</crs:GrainAmount>
  <crs:GreenHue>0</crs:GreenHue>
  <crs:GreenSaturation>0</crs:GreenSaturation>
  <crs:HDREditMode>0</crs:HDREditMode>
  <crs:HasCrop>False</crs:HasCrop>
  <crs:HasSettings>True</crs:HasSettings>
  <crs:Highlights2012>-42</crs:Highlights2012>
  <crs:HueAdjustmentAqua>0</crs:HueAdjustmentAqua>
  <crs:HueAdjustmentBlue>0</crs:HueAdjustmentBlue>
  <crs:HueAdjustmentGreen>0</crs:HueAdjustmentGreen>
  <crs:HueAdjustmentMagenta>0</crs:HueAdjustmentMagenta>
  <crs:HueAdjustmentOrange>0</crs:HueAdjustmentOrange>
  <crs:HueAdjustmentPurple>0</crs:HueAdjustmentPurple>
  <crs:HueAdjustmentRed>0</crs:HueAdjustmentRed>
  <crs:HueAdjustmentYellow>0</crs:HueAdjustmentYellow>
  <crs:LensManualDistortionAmount>0</crs:LensManualDistortionAmount>
  <crs:LensProfileDigest>954047BD70EC6DD4601FA10DCDC204CD</crs:LensProfileDigest>
  <crs:LensProfileDistortionScale>100</crs:LensProfileDistortionScale>
  <crs:LensProfileEnable>1</crs:LensProfileEnable>
  <crs:LensProfileFilename>SONY (Sony E 18-200mm F3.5-6.3 OSS LE) - RAW.lcp</crs:LensProfileFilename>
  <crs:LensProfileIsEmbedded>False</crs:LensProfileIsEmbedded>
  <crs:LensProfileName>Adobe (Sony E 18-200mm F3.5-6.3 OSS LE)</crs:LensProfileName>
  <crs:LensProfileSetup>LensDefaults</crs:LensProfileSetup>
  <crs:LensProfileVignettingScale>100</crs:LensProfileVignettingScale>
  <crs:LuminanceAdjustmentAqua>0</crs:LuminanceAdjustmentAqua>
  <crs:LuminanceAdjustmentBlue>0</crs:LuminanceAdjustmentBlue>
  <crs:LuminanceAdjustmentGreen>0</crs:LuminanceAdjustmentGreen>
  <crs:LuminanceAdjustmentMagenta>0</crs:LuminanceAdjustmentMagenta>
  <crs:LuminanceAdjustmentOrange>0</crs:LuminanceAdjustmentOrange>
  <crs:LuminanceAdjustmentPurple>0</crs:LuminanceAdjustmentPurple>
  <crs:LuminanceAdjustmentRed>0</crs:LuminanceAdjustmentRed>
  <crs:LuminanceAdjustmentYellow>0</crs:LuminanceAdjustmentYellow>
  <crs:LuminanceSmoothing>0</crs:LuminanceSmoothing>
  <crs:OverrideLookVignette>False</crs:OverrideLookVignette>
  <crs:ParametricDarks>0</crs:ParametricDarks>
  <crs:ParametricHighlightSplit>75</crs:ParametricHighlightSplit>
  <crs:ParametricHighlights>0</crs:ParametricHighlights>
  <crs:ParametricLights>0</crs:ParametricLights>
  <crs:ParametricMidtoneSplit>50</crs:ParametricMidtoneSplit>
  <crs:ParametricShadowSplit>25</crs:ParametricShadowSplit>
  <crs:ParametricShadows>0</crs:ParametricShadows>
  <crs:PerspectiveAspect>0</crs:PerspectiveAspect>
  <crs:PerspectiveHorizontal>0</crs:PerspectiveHorizontal>
  <crs:PerspectiveRotate>0.0</crs:PerspectiveRotate>
  <crs:PerspectiveScale>100</crs:PerspectiveScale>
  <crs:PerspectiveUpright>0</crs:PerspectiveUpright>
  <crs:PerspectiveVertical>0</crs:PerspectiveVertical>
  <crs:PerspectiveX>0.00</crs:PerspectiveX>
  <crs:PerspectiveY>0.00</crs:PerspectiveY>
  <crs:PostCropVignetteAmount>0</crs:PostCropVignetteAmount>
  <crs:ProcessVersion>15.4</crs:ProcessVersion>
  <crs:RedHue>0</crs:RedHue>
  <crs:RedSaturation>0</crs:RedSaturation>
  <crs:Saturation>0</crs:Saturation>
  <crs:SaturationAdjustmentAqua>0</crs:SaturationAdjustmentAqua>
  <crs:SaturationAdjustmentBlue>0</crs:SaturationAdjustmentBlue>
  <crs:SaturationAdjustmentGreen>0</crs:SaturationAdjustmentGreen>
  <crs:SaturationAdjustmentMagenta>0</crs:SaturationAdjustmentMagenta>
  <crs:SaturationAdjustmentOrange>0</crs:SaturationAdjustmentOrange>
  <crs:SaturationAdjustmentPurple>0</crs:SaturationAdjustmentPurple>
  <crs:SaturationAdjustmentRed>0</crs:SaturationAdjustmentRed>
  <crs:SaturationAdjustmentYellow>0</crs:SaturationAdjustmentYellow>
  <crs:ShadowTint>0</crs:ShadowTint>
  <crs:Shadows2012>+38</crs:Shadows2012>
  <crs:SharpenDetail>25</crs:SharpenDetail>
  <crs:SharpenEdgeMasking>0</crs:SharpenEdgeMasking>
  <crs:SharpenRadius>+1.0</crs:SharpenRadius>
  <crs:Sharpness>40</crs:Sharpness>
  <crs:SplitToningBalance>0</crs:SplitToningBalance>
  <crs:SplitToningHighlightHue>0</crs:SplitToningHighlightHue>
  <crs:SplitToningHighlightSaturation>0</crs:SplitToningHighlightSaturation>
  <crs:SplitToningShadowHue>0</crs:SplitToningShadowHue>
  <crs:SplitToningShadowSaturation>0</crs:SplitToningShadowSaturation>
  <crs:Temperature>5300</crs:Temperature>
  <crs:Texture>0</crs:Texture>
  <crs:Tint>+12</crs:Tint>
  <crs:ToneCurveName2012>Linear</crs:ToneCurveName2012>
  <crs:ToneCurvePV2012>
   <rdf:Seq>
    <rdf:li>0, 0</rdf:li>
    <rdf:li>255, 255</rdf:li>
   </rdf:Seq>
  </crs:ToneCurvePV2012>
  <crs:ToneCurvePV2012Blue>
   <rdf:Seq>
    <rdf:li>0, 0</rdf:li>
    <rdf:li>255, 255</rdf:li>
   </rdf:Seq>
  </crs:ToneCurvePV2012Blue>
  <crs:ToneCurvePV2012Green>
   <rdf:Seq>
    <rdf:li>0, 0</rdf:li>
    <rdf:li>255, 255</rdf:li>
   </rdf:Seq>
  </crs:ToneCurvePV2012Green>
  <crs:ToneCurvePV2012Red>
   <rdf:Seq>
    <rdf:li>0, 0</rdf:li>
    <rdf:li>255, 255</rdf:li>
   </rdf:Seq>
  </crs:ToneCurvePV2012Red>
  <crs:Version>16.0</crs:Version>
  <crs:Vibrance>0</crs:Vibrance>
  <crs:VignetteAmount>0</crs:VignetteAmount>
  <crs:WhiteBalance>As Shot</crs:WhiteBalance>
  <crs:Whites2012>0</crs:Whites2012>
 </rdf:Description>

 <rdf:Description rdf:about=''
  xmlns:dc='http://purl.org/dc/elements/1.1/'>
  <dc:creator>
   <rdf:Seq>
    <rdf:li>Dion</rdf:li>
   </rdf:Seq>
  </dc:creator>
  <dc:description>
   <rdf:Alt>
    <rdf:li xml:lang='x-default'>Osteospermum ecklonis</rdf:li>
   </rdf:Alt>
  </dc:description>
  <dc:format>image/x-sony-arw</dc:format>
  <dc:rights>
   <rdf:Alt>
    <rdf:li xml:lang='x-default'>Dion</rdf:li>
   </rdf:Alt>
  </dc:rights>
  <dc:subject>
   <rdf:Bag>
    <rdf:li>Spaanse margrieten</rdf:li>
    <rdf:li>Osteospermum ecklonis</rdf:li>
    <rdf:li>Jardins del Real </rdf:li>
   </rdf:Bag>
  </dc:subject>
  <dc:title>
   <rdf:Alt>
    <rdf:li xml:lang='x-default'>Spaanse margrieten</rdf:li>
   </rdf:Alt>
  </dc:title>
 </rdf:Description>

 <rdf:Description rdf:about=''
  xmlns:exif='http://ns.adobe.com/exif/1.0/'>
  <exif:ApertureValue>4970854/1000000</exif:ApertureValue>
  <exif:BrightnessValue>17344/2560</exif:BrightnessValue>
  <exif:Contrast>0</exif:Contrast>
  <exif:CustomRendered>0</exif:CustomRendered>
  <exif:DateTimeOriginal>2026-03-08T14:41:18.945+01:00</exif:DateTimeOriginal>
  <exif:DigitalZoomRatio>16/16</exif:DigitalZoomRatio>
  <exif:ExifVersion>0232</exif:ExifVersion>
  <exif:ExposureBiasValue>0/10</exif:ExposureBiasValue>
  <exif:ExposureMode>0</exif:ExposureMode>
  <exif:ExposureProgram>3</exif:ExposureProgram>
  <exif:ExposureTime>1/500</exif:ExposureTime>
  <exif:FNumber>56/10</exif:FNumber>
  <exif:FileSource>3</exif:FileSource>
  <exif:Flash rdf:parseType='Resource'>
   <exif:Fired>False</exif:Fired>
   <exif:Function>False</exif:Function>
   <exif:Mode>2</exif:Mode>
   <exif:RedEyeMode>False</exif:RedEyeMode>
   <exif:Return>0</exif:Return>
  </exif:Flash>
  <exif:FocalLength>570/10</exif:FocalLength>
  <exif:FocalLengthIn35mmFilm>85</exif:FocalLengthIn35mmFilm>
  <exif:FocalPlaneResolutionUnit>3</exif:FocalPlaneResolutionUnit>
  <exif:FocalPlaneXResolution>86709169/32768</exif:FocalPlaneXResolution>
  <exif:FocalPlaneYResolution>86709169/32768</exif:FocalPlaneYResolution>
  <exif:ISOSpeedRatings>
   <rdf:Seq>
    <rdf:li>800</rdf:li>
   </rdf:Seq>
  </exif:ISOSpeedRatings>
  <exif:LightSource>0</exif:LightSource>
  <exif:MaxApertureValue>1272/256</exif:MaxApertureValue>
  <exif:MeteringMode>5</exif:MeteringMode>
  <exif:RecommendedExposureIndex>800</exif:RecommendedExposureIndex>
  <exif:Saturation>0</exif:Saturation>
  <exif:SceneCaptureType>0</exif:SceneCaptureType>
  <exif:SceneType>1</exif:SceneType>
  <exif:SensitivityType>2</exif:SensitivityType>
  <exif:Sharpness>0</exif:Sharpness>
  <exif:ShutterSpeedValue>8965784/1000000</exif:ShutterSpeedValue>
  <exif:WhiteBalance>0</exif:WhiteBalance>
 </rdf:Description>

 <rdf:Description rdf:about=''
  xmlns:exifEX='http://cipa.jp/exif/1.0/'>
  <exifEX:BodySerialNumber>02140235</exifEX:BodySerialNumber>
  <exifEX:LensModel>E 18-200mm F3.5-6.3 OSS LE</exifEX:LensModel>
 </rdf:Description>

 <rdf:Description rdf:about=''
  xmlns:pdf='http://ns.adobe.com/pdf/1.3/'>
  <pdf:Keywords>Spaanse margrieten, Osteospermum ecklonis, Jardins del Real</pdf:Keywords>
 </rdf:Description>

 <rdf:Description rdf:about=''
  xmlns:photomechanic='http://ns.camerabits.com/photomechanic/1.0/'>
  <photomechanic:ColorClass>2</photomechanic:ColorClass>
  <photomechanic:Prefs>0:2:0:0</photomechanic:Prefs>
 </rdf:Description>

 <rdf:Description rdf:about=''
  xmlns:photoshop='http://ns.adobe.com/photoshop/1.0/'>
  <photoshop:DateCreated>2026-03-08T14:41:18</photoshop:DateCreated>
  <photoshop:EmbeddedXMPDigest>4900BC77CB0DBCA80610989F7ACC9AF8</photoshop:EmbeddedXMPDigest>
  <photoshop:SidecarForExtension>ARW</photoshop:SidecarForExtension>
 </rdf:Description>

 <rdf:Description rdf:about=''
  xmlns:tiff='http://ns.adobe.com/tiff/1.0/'>
  <tiff:Make>SONY</tiff:Make>
  <tiff:Model>ILCE-6700</tiff:Model>
  <tiff:Orientation>1</tiff:Orientation>
 </rdf:Description>

 <rdf:Description rdf:about=''
  xmlns:xmp='http://ns.adobe.com/xap/1.0/'>
  <xmp:CreateDate>2026-03-08T14:41:18.945+01:00</xmp:CreateDate>
  <xmp:CreatorTool>ILCE-6700 v2.00</xmp:CreatorTool>
  <xmp:Label>Winner Alt</xmp:Label>
  <xmp:MetadataDate>2026-03-22T20:51:15+01:00</xmp:MetadataDate>
  <xmp:ModifyDate>2026-03-08T14:41:18.945+01:00</xmp:ModifyDate>
 </rdf:Description>

 <rdf:Description rdf:about=''
  xmlns:stEvt='http://ns.adobe.com/xap/1.0/sType/ResourceEvent#'
  xmlns:xmpMM='http://ns.adobe.com/xap/1.0/mm/'>
  <xmpMM:DocumentID>F68502D7FFBA7B61F4B6FAB53C76E083</xmpMM:DocumentID>
  <xmpMM:History>
   <rdf:Seq>
    <rdf:li rdf:parseType='Resource'>
     <stEvt:softwareAgent>ILCE-6700 v2.00</stEvt:softwareAgent>
    </rdf:li>
    <rdf:li rdf:parseType='Resource'>
     <stEvt:action>saved</stEvt:action>
     <stEvt:changed>/metadata</stEvt:changed>
     <stEvt:instanceID>xmp.iid:39f38ca4-9d79-415d-a494-b2be6b7e6f8c</stEvt:instanceID>
     <stEvt:softwareAgent>Adobe Photoshop Camera Raw 16.0 (Macintosh)</stEvt:softwareAgent>
     <stEvt:when>2026-03-22T20:51:15+01:00</stEvt:when>
    </rdf:li>
   </rdf:Seq>
  </xmpMM:History>
  <xmpMM:InstanceID>xmp.iid:39f38ca4-9d79-415d-a494-b2be6b7e6f8c</xmpMM:InstanceID>
  <xmpMM:OriginalDocumentID>F68502D7FFBA7B61F4B6FAB53C76E083</xmpMM:OriginalDocumentID>
 </rdf:Description>
</rdf:RDF>
</x:xmpmeta>
